cssgg/align-bottom.svg

<svg viewBox="0 0 24 24" xmlns="http://www.w3.org/2000/svg"><path fill-opacity=".5" d="M13 10h4v6h-4v-6Z"/><g><path d="M11 4H7v12h4V4Z"/><path d="M18 18H6v2h12v-2Z"/></g></svg>

<svg
  width="24"
  height="24"
  viewBox="0 0 24 24"
  fill="none"
  xmlns="http://www.w3.org/2000/svg"
>
  <path d="M13 10H17V16H13V10Z" fill="currentColor" fill-opacity="0.5" />
  <path d="M11 4H7V16H11V4Z" fill="currentColor" />
  <path d="M18 18H6V20H18V18Z" fill="currentColor" />
</svg>
